X: 10624
T: TEETOTAL JIG
C: A. Gunn
O: Copyright.
%R: slip-jig
B: W. Hamilton "Universal Tune-Book" Vol. 1 Glasgow 1844 p.62 #4 (and p.63 #1)
S: http://imslp.org/wiki/Hamilton's_Universal_Tune-Book_(Various)
Z: 2016 John Chambers <jc:trillian.mit.edu>
M: 9/8
L: 1/8
K: C
% - - - - - - - - - - - - - - - - - - - - - - - - -
|:\
c>AG GEC DEG | c>AG GEC D2E |\
c>AG GEC DEG | cAc GEG A2c :|\
c>eg gea gec | c>eg gec e2g |
c>eg gea gec | cBA GEC E2G |\
c>eg gea gec | c>eg gec e2g |\
agf gfe dcB | cAc GEG A2c |]
% - - - - - - - - - - - - - - - - - - - - - - - - -

% (Continued from previous page)

%%sep 1 1 500
%%sep 1 1 500

